src/raw/swimming/icon_24.svg

<svg width="24" height="24" viewBox="0 0 24 24" fill="none" xmlns="http://www.w3.org/2000/svg">
<path d="M19.5 11.195C20.9497 11.195 22.125 10.0198 22.125 8.57001C22.125 7.12026 20.9497 5.94501 19.5 5.94501C18.0503 5.94501 16.875 7.12026 16.875 8.57001C16.875 10.0198 18.0503 11.195 19.5 11.195Z" stroke="#71717A" stroke-width="1.5" stroke-linecap="round" stroke-linejoin="round"/>
<path d="M7.37891 14L11.2099 11.6L8.39991 8.39401C8.09795 8.04897 7.8791 7.6393 7.76016 7.19648C7.64123 6.75366 7.62538 6.28948 7.71384 5.83958C7.80229 5.38968 7.99269 4.96604 8.27042 4.60121C8.54814 4.23637 8.9058 3.94005 9.31591 3.73501L13.5789 1.60001C13.7553 1.51007 13.9477 1.45594 14.1451 1.44072C14.3424 1.4255 14.5409 1.4495 14.7289 1.51135C14.917 1.57319 15.091 1.67164 15.2408 1.80104C15.3906 1.93043 15.5133 2.08821 15.6019 2.26526C15.6905 2.44231 15.7431 2.63515 15.7568 2.83264C15.7705 3.03013 15.7449 3.22838 15.6816 3.41595C15.6183 3.60352 15.5185 3.77671 15.3879 3.92552C15.2574 4.07434 15.0986 4.19583 14.9209 4.28301L11.5209 5.98301C11.4189 6.03513 11.3302 6.10988 11.2616 6.20154C11.1929 6.29321 11.1461 6.39936 11.1248 6.51188C11.1035 6.6244 11.1082 6.74031 11.1385 6.85074C11.1689 6.96117 11.2241 7.06319 11.2999 7.14901L16.6498 13.263" stroke="#71717A" stroke-width="1.5" stroke-linecap="round" stroke-linejoin="round"/>
<path d="M23.25 17C21.75 17 21 18.5 19.5 18.5C18 18.5 17.25 17 15.75 17C14.25 17 13.5 18.5 12 18.5C10.5 18.5 9.74995 17 8.24995 17C6.74995 17 5.99995 18.5 4.49995 18.5C3.00911 18.5 2.25914 17.0183 0.777344 17.0002" stroke="#71717A" stroke-width="1.5" stroke-linecap="round" stroke-linejoin="round"/>
<path d="M0.75 21C2.25 21 3 22.5 4.5 22.5C6 22.5 6.75 21 8.25 21C9.75 21 10.5 22.5 12 22.5C13.5 22.5 14.25 21 15.75 21C17.25 21 18 22.5 19.5 22.5C20.9921 22.5 21.7421 21.0157 23.2265 21.0001" stroke="#71717A" stroke-width="1.5" stroke-linecap="round" stroke-linejoin="round"/>
</svg>

<svg xmlns="http://www.w3.org/2000/svg" width="24" height="24" fill="none" viewBox="0 0 24 24">
  <path stroke="#3F3F46" stroke-linecap="round" stroke-linejoin="round" stroke-width="1.5"
    d="M19.5 11.195a2.625 2.625 0 1 0 0-5.25 2.625 2.625 0 0 0 0 5.25ZM7.379 14l3.83-2.4L8.4 8.394a3 3 0 0 1 .917-4.659L13.579 1.6a1.5 1.5 0 1 1 1.342 2.683l-3.4 1.7a.75.75 0 0 0-.221 1.166l5.33 6.09M23.25 17c-1.5 0-2.25 1.5-3.75 1.5S17.25 17 15.75 17 13.5 18.5 12 18.5 9.75 17 8.25 17 6 18.5 4.5 18.5c-1.491 0-2.241-1.482-3.724-1.5M.75 21c1.5 0 2.25 1.5 3.75 1.5S6.75 21 8.25 21s2.25 1.5 3.75 1.5 2.25-1.5 3.75-1.5 2.25 1.5 3.75 1.5c1.492 0 2.242-1.484 3.727-1.5" />
</svg>
